X:1
T:The Mill
C:Anonymous; arr. T. S. Macdonald
M:4/4
K:D
%%staves { 1 2 }
V:1
de | f2 A>B A3 d | B>A Bd e2 de | f2 A>A gfed | B3 c d2 :|
A2 | d>efg a2 aa | bagf e2 A>A | d>efg a>bag | f3 g a2 A>A |
     d>efg a2 ga | bagf e2 de | f2 A>A gfed | B3 c d2 :|]
V:2
L:1/4
"0"D | D4 | D2 "1"E2 | "2"F2 "3"G "2"F | "0"D > "1"E "2"F :|
"0"D | D4 | D2 "1"E2 | "0"D4 | "0"D2 "1"A,2 |
       D4 | D2 "1"E2 | "2"F2 "3"G "2"F | "0"D > "1"E "2"F :|]



